apps/scalable/grub-customizer.svg

<svg height="48" width="48" xmlns="http://www.w3.org/2000/svg" xmlns:xlink="http://www.w3.org/1999/xlink"><linearGradient id="a" gradientUnits="userSpaceOnUse" x1="409.571423" x2="409.571423" y1="543.79797" y2="503.798"><stop offset="0" stop-color="#2a2c2f"/><stop offset="1" stop-color="#424649"/></linearGradient><linearGradient id="b" gradientUnits="userSpaceOnUse" x1="25" x2="25" y1="40" y2="8"><stop offset="0" stop-color="#d5d5d6"/><stop offset="1" stop-color="#f4f5f5"/></linearGradient><linearGradient id="c" gradientUnits="userSpaceOnUse" x1="6" x2="32" y1="7" y2="33"><stop offset="0" stop-color="#292c2f"/><stop offset="1" stop-opacity="0"/></linearGradient><g transform="translate(-384.57143 -499.798)"><rect fill="url(#a)" height="39.999969" ry="1.999996" width="40.000011" x="388.57141" y="503.798"/><path d="m40 8v32h-32l3 3 1 1h32v-32z" fill="url(#c)" fill-rule="evenodd" opacity=".2" transform="translate(384.57143 499.798)"/><path d="m8 8v32h32v-32zm1 1h30v21h-30zm1 3v2h22v-2zm-1 19h30v8h-30zm2 3v1h1v-1zm2 0v1h1v-1zm2 0v1h1v-1zm16 0v1h1v-1zm2 0v1h1v-1zm2 0v1h1v-1z" fill="url(#b)" transform="translate(384.57143 499.798)"/><text fill="#fff" font-family="sans-serif" font-size="7.787494" letter-spacing="0" word-spacing="0" x="393.89819" y="519.93311"><tspan fill="#fff" font-family="Oxygen Mono" x="393.89819" y="519.93311">grub</tspan></text></g></svg>

<?xml version="1.0" encoding="UTF-8" standalone="no"?>
<!-- Created with Inkscape (http://www.inkscape.org/) -->

<svg
   xmlns:dc="http://purl.org/dc/elements/1.1/"
   xmlns:cc="http://creativecommons.org/ns#"
   xmlns:rdf="http://www.w3.org/1999/02/22-rdf-syntax-ns#"
   xmlns:svg="http://www.w3.org/2000/svg"
   xmlns="http://www.w3.org/2000/svg"
   xmlns:xlink="http://www.w3.org/1999/xlink"
   xmlns:sodipodi="http://sodipodi.sourceforge.net/DTD/sodipodi-0.dtd"
   xmlns:inkscape="http://www.inkscape.org/namespaces/inkscape"
   width="48"
   height="48"
   id="svg5453"
   version="1.1"
   inkscape:version="0.91 r13725"
   sodipodi:docname="grub-customizer.svg">
  <defs
     id="defs5455">
    <linearGradient
       inkscape:collect="always"
       id="linearGradient4159">
      <stop
         style="stop-color:#2a2c2f;stop-opacity:1"
         offset="0"
         id="stop4161" />
      <stop
         style="stop-color:#424649;stop-opacity:1"
         offset="1"
         id="stop4163" />
    </linearGradient>
    <linearGradient
       inkscape:collect="always"
       xlink:href="#linearGradient4159"
       id="linearGradient4165"
       x1="409.57144"
       y1="543.79797"
       x2="409.57144"
       y2="503.798"
       gradientUnits="userSpaceOnUse"
       gradientTransform="translate(-1.7372437e-5,0)" />
    <linearGradient
       inkscape:collect="always"
       xlink:href="#linearGradient4219"
       id="linearGradient4299"
       x1="25"
       y1="40"
       x2="25"
       y2="8"
       gradientUnits="userSpaceOnUse" />
    <linearGradient
       inkscape:collect="always"
       id="linearGradient4219">
      <stop
         style="stop-color:#d5d5d6;stop-opacity:1"
         offset="0"
         id="stop4221" />
      <stop
         style="stop-color:#f4f5f5;stop-opacity:1"
         offset="1"
         id="stop4223" />
    </linearGradient>
    <linearGradient
       inkscape:collect="always"
       xlink:href="#linearGradient4227"
       id="linearGradient4379"
       x1="6"
       y1="7"
       x2="32"
       y2="33"
       gradientUnits="userSpaceOnUse" />
    <linearGradient
       id="linearGradient4227"
       inkscape:collect="always">
      <stop
         id="stop4229"
         offset="0"
         style="stop-color:#292c2f;stop-opacity:1" />
      <stop
         id="stop4231"
         offset="1"
         style="stop-color:#000000;stop-opacity:0;" />
    </linearGradient>
  </defs>
  <sodipodi:namedview
     id="base"
     pagecolor="#5a5a5a"
     bordercolor="#666666"
     borderopacity="1.0"
     inkscape:pageopacity="0"
     inkscape:pageshadow="2"
     inkscape:zoom="8.0000004"
     inkscape:cx="6.2500045"
     inkscape:cy="23.36785"
     inkscape:document-units="px"
     inkscape:current-layer="layer1"
     showgrid="false"
     fit-margin-top="0"
     fit-margin-left="0"
     fit-margin-right="0"
     fit-margin-bottom="0"
     inkscape:window-width="1366"
     inkscape:window-height="642"
     inkscape:window-x="0"
     inkscape:window-y="33"
     inkscape:window-maximized="1"
     inkscape:showpageshadow="false"
     borderlayer="true"
     showguides="false"
     showborder="false">
    <inkscape:grid
       type="xygrid"
       id="grid4063" />
    <sodipodi:guide
       position="1.1650391e-05,47.999996"
       orientation="4,0"
       id="guide4146" />
    <sodipodi:guide
       position="1.1650391e-05,43.999996"
       orientation="0,48"
       id="guide4148" />
    <sodipodi:guide
       position="48.000012,43.999996"
       orientation="-4,0"
       id="guide4150" />
    <sodipodi:guide
       position="48.000012,47.999996"
       orientation="0,-48"
       id="guide4152" />
    <sodipodi:guide
       position="1.1650391e-05,4.0000264"
       orientation="4,0"
       id="guide4154" />
    <sodipodi:guide
       position="1.1650391e-05,2.6367188e-05"
       orientation="0,48"
       id="guide4156" />
    <sodipodi:guide
       position="48.000012,2.6367188e-05"
       orientation="-4,0"
       id="guide4158" />
    <sodipodi:guide
       position="48.000012,4.0000264"
       orientation="0,-48"
       id="guide4160" />
    <sodipodi:guide
       position="48.000012,48.000026"
       orientation="0,-4"
       id="guide4162" />
    <sodipodi:guide
       position="44.000012,48.000026"
       orientation="48,0"
       id="guide4164" />
    <sodipodi:guide
       position="44.000012,2.6367188e-05"
       orientation="0,4"
       id="guide4166" />
    <sodipodi:guide
       position="48.000012,2.6367188e-05"
       orientation="-48,0"
       id="guide4168" />
    <sodipodi:guide
       position="4.0000422,48.000026"
       orientation="0,-4"
       id="guide4170" />
    <sodipodi:guide
       position="4.2167969e-05,48.000026"
       orientation="48,0"
       id="guide4172" />
    <sodipodi:guide
       position="4.2167969e-05,2.6367188e-05"
       orientation="0,4"
       id="guide4174" />
    <sodipodi:guide
       position="4.0000422,2.6367188e-05"
       orientation="-48,0"
       id="guide4176" />
    <sodipodi:guide
       position="14.000012,34.000026"
       orientation="20,0"
       id="guide4173" />
    <sodipodi:guide
       position="34.000012,14.000026"
       orientation="-20,0"
       id="guide4177" />
    <sodipodi:guide
       position="34.000012,34.000026"
       orientation="0,-20"
       id="guide4179" />
    <sodipodi:guide
       position="14.000012,34.000026"
       orientation="20,0"
       id="guide4252" />
    <sodipodi:guide
       position="14.000012,14.000026"
       orientation="0,20"
       id="guide4254" />
    <sodipodi:guide
       position="34.000012,14.000026"
       orientation="-20,0"
       id="guide4256" />
    <sodipodi:guide
       position="34.000012,34.000026"
       orientation="0,-20"
       id="guide4258" />
  </sodipodi:namedview>
  <metadata
     id="metadata5458">
    <rdf:RDF>
      <cc:Work
         rdf:about="">
        <dc:format>image/svg+xml</dc:format>
        <dc:type
           rdf:resource="http://purl.org/dc/dcmitype/StillImage" />
        <dc:title></dc:title>
      </cc:Work>
    </rdf:RDF>
  </metadata>
  <g
     inkscape:label="Layer 1"
     inkscape:groupmode="layer"
     id="layer1"
     transform="translate(-384.57143,-499.798)">
    <rect
       style="opacity:1;fill:url(#linearGradient4165);fill-opacity:1;stroke:none"
       id="rect4146"
       width="40.000011"
       height="39.999969"
       x="388.57141"
       y="503.798"
       ry="1.9999958" />
    <path
       style="fill:url(#linearGradient4379);fill-rule:evenodd;stroke:none;stroke-width:1px;stroke-linecap:butt;stroke-linejoin:miter;stroke-opacity:1;fill-opacity:1;opacity:0.2"
       d="M 40 8 L 40 40 L 8 40 L 11 43 L 12 44 L 44 44 L 44 12 L 40 8 z "
       transform="translate(384.57143,499.798)"
       id="path4368" />
    <path
       style="opacity:1;fill:url(#linearGradient4299);fill-opacity:1.0;stroke:none"
       d="M 8 8 L 8 40 L 40 40 L 40 8 L 8 8 z M 9 9 L 39 9 L 39 30 L 9 30 L 9 9 z M 10 12 L 10 14 L 32 14 L 32 12 L 10 12 z M 9 31 L 39 31 L 39 39 L 9 39 L 9 31 z M 11 34 L 11 35 L 12 35 L 12 34 L 11 34 z M 13 34 L 13 35 L 14 35 L 14 34 L 13 34 z M 15 34 L 15 35 L 16 35 L 16 34 L 15 34 z M 31 34 L 31 35 L 32 35 L 32 34 L 31 34 z M 33 34 L 33 35 L 34 35 L 34 34 L 33 34 z M 35 34 L 35 35 L 36 35 L 36 34 L 35 34 z "
       transform="translate(384.57143,499.798)"
       id="rect4260" />
    <text
       xml:space="preserve"
       style="font-style:normal;font-weight:normal;font-size:7.78749371px;line-height:125%;font-family:sans-serif;letter-spacing:0px;word-spacing:0px;fill:#ffffff;fill-opacity:1;stroke:none;stroke-width:1px;stroke-linecap:butt;stroke-linejoin:miter;stroke-opacity:1;"
       x="393.89819"
       y="519.93311"
       id="text4173"
       sodipodi:linespacing="125%"><tspan
         sodipodi:role="line"
         id="tspan4175"
         x="393.89819"
         y="519.93311"
         style="font-style:normal;font-variant:normal;font-weight:normal;font-stretch:normal;font-family:'Oxygen Mono';-inkscape-font-specification:'Oxygen Mono';fill:#ffffff;fill-opacity:1;">grub</tspan></text>
  </g>
</svg>
